packages/ffe-icons/icons/open/500/md/progress_activity.svg

<svg xmlns="http://www.w3.org/2000/svg" height="24" viewBox="0 -960 960 960" width="24"><path d="M480-71.87q-83.913 0-158.34-32.115-74.428-32.116-129.993-87.682-55.566-55.565-87.682-129.993Q71.869-396.087 71.869-480q0-84.708 32.114-158.7 32.113-73.992 87.673-129.613 55.561-55.622 129.996-87.72T480-888.131q19.152 0 32.326 13.174T525.5-842.63q0 19.152-13.174 32.326T480-797.13q-131.807 0-224.469 92.661-92.661 92.66-92.661 224.467 0 131.806 92.661 224.469 92.66 92.663 224.467 92.663 131.806 0 224.469-92.661Q797.13-348.193 797.13-480q0-19.152 13.174-32.326T842.63-525.5q19.153 0 32.327 13.174T888.131-480q0 83.913-32.114 158.351-32.113 74.437-87.673 130.011-55.561 55.573-129.582 87.671Q564.741-71.869 480-71.869Z"/></svg>

<svg xmlns="http://www.w3.org/2000/svg" height="24" viewBox="0 -960 960 960" width="24"><path d="M480-71.87q-83.91 0-158.34-32.12-74.43-32.11-129.99-87.68-55.57-55.56-87.68-129.99Q71.87-396.09 71.87-480q0-84.71 32.11-158.7 32.12-73.99 87.68-129.61 55.56-55.62 129.99-87.72 74.44-32.1 158.35-32.1 19.15 0 32.33 13.17 13.17 13.18 13.17 32.33t-13.17 32.33q-13.18 13.17-32.33 13.17-131.81 0-224.47 92.66T162.87-480q0 131.8 92.66 224.47 92.66 92.66 224.47 92.66 131.8 0 224.47-92.66 92.66-92.66 92.66-224.47 0-19.15 13.17-32.33 13.18-13.17 32.33-13.17t32.33 13.17q13.17 13.18 13.17 32.33 0 83.91-32.11 158.35-32.12 74.44-87.68 130.01-55.56 55.57-129.58 87.67-74.02 32.1-158.76 32.1Z"/></svg>
